X:9
T:Eclade Geante
M:4/4
L:1/8
R:Reel
C:Gris Sanderson
Q:400
N:The title of this 3-part reel comes from an event that included 
N:a feast of mussels cooked on oak boards with flaming pine-
N:needles, plenty of pineau and some excellent dancing on the 
N:banks of the Charente. It is on the Spyka album.
K:Ddor
DGAc d2dA|~c2cd cAGA|E2BE dEBE|~B2Be dcAG|
DGAc d2dA|c2cd cAGc|Aage a2ge|1dcAd cAGE:|2dcAd cAGc||
|:AdcA~d2cA|GFDC A,CG,2|A,2EA, GA,EA,|~E2EA GFDC|
CDDd cAdc|AGFD CDG,2|1A,EE GEE A,E|DCA,CD2DC:|2A,CDE GAcd|eged cAGc||
|:A2aA gAaa-|aeag edge|dAdc AEAG|FAGF DCA,C|
G,2G,A, CDFG|AdcA G-G^GA-|AGEA GEDE|1GAcd egde:|2GAcd cAGE||
